symbols/web/replay_circle_filled/materialsymbolsoutlined/replay_circle_filled_wght300grad200_48px.svg

<svg xmlns="http://www.w3.org/2000/svg" height="48" width="48"><path d="M24 36.7q4.85 0 8.3-3.425Q35.75 29.85 35.75 25q0-5.2-3.925-8.625T22.6 13.25l3.6-3.55-2.3-2.3-7.55 7.55 7.55 7.55 2.3-2.3-3.55-3.55q3.95-.3 6.825 2.125T32.35 25q0 3.45-2.45 5.9T24 33.35q-3.4 0-5.775-2.3-2.375-2.3-2.575-5.7h-3.3q.15 4.8 3.525 8.075Q19.25 36.7 24 36.7Zm0 7.1q-4.1 0-7.7-1.55Q12.7 40.7 10 38q-2.7-2.7-4.25-6.3Q4.2 28.1 4.2 24q0-4.05 1.55-7.675t4.225-6.3q2.675-2.675 6.3-4.25Q19.9 4.2 24 4.2q4.05 0 7.7 1.55 3.65 1.55 6.325 4.225 2.675 2.675 4.225 6.3Q43.8 19.9 43.8 24t-1.55 7.725q-1.55 3.625-4.225 6.3t-6.3 4.225Q28.1 43.8 24 43.8Z"/></svg>

<svg xmlns="http://www.w3.org/2000/svg" height="48" width="48"><path d="M24 36.7Q28.85 36.7 32.3 33.275Q35.75 29.85 35.75 25Q35.75 19.8 31.825 16.375Q27.9 12.95 22.6 13.25L26.2 9.7L23.9 7.4L16.35 14.95L23.9 22.5L26.2 20.2L22.65 16.65Q26.6 16.35 29.475 18.775Q32.35 21.2 32.35 25Q32.35 28.45 29.9 30.9Q27.45 33.35 24 33.35Q20.6 33.35 18.225 31.05Q15.85 28.75 15.65 25.35H12.35Q12.5 30.15 15.875 33.425Q19.25 36.7 24 36.7ZM24 43.8Q19.9 43.8 16.3 42.25Q12.7 40.7 10 38Q7.3 35.3 5.75 31.7Q4.2 28.1 4.2 24Q4.2 19.95 5.75 16.325Q7.3 12.7 9.975 10.025Q12.65 7.35 16.275 5.775Q19.9 4.2 24 4.2Q28.05 4.2 31.7 5.75Q35.35 7.3 38.025 9.975Q40.7 12.65 42.25 16.275Q43.8 19.9 43.8 24Q43.8 28.1 42.25 31.725Q40.7 35.35 38.025 38.025Q35.35 40.7 31.725 42.25Q28.1 43.8 24 43.8Z"/></svg>
